X:74
T:Paddy Fahy's
R:hornpipe
D:Kevin Crawford: D Flute Album
Z:id:hn-hornpipe-74
M:C|
K:G
BA |: GBDG BAGF | EcEG ced2 | (3Bcd gd (3Bcd Bd | cBAG (3fed (3cBA |
GBDG ~B3G | EcEG ced2 | (3Bcd gd (3Bcd DF |1 AGGF ~G3z :|2 AGGF G2 ||
|: Bc | d2gf gdBd | cdag f2ab | gd (3Bcd ecAG | FADA d3c |
(3Bcd Bd cBcA | Bdfa gfd2 | (3Bcd gd (3Bcd DF |1 AGGF G2 :|2 AGGF G2 ||
P:fiddle version
|: B,A, | G,B,DG BAGF | ECCB, CEGc | (3Bcd gd ^cdBd | cBAG (3FED (3CB,A, |
G,B,DG BAGF | ECCB, CEGc | (3Bcd gd ^cdDF | (3ABA GF G2 :|
|: Bc | dggf gdBd | (3cBA ag fgaf | gdBd ecAG | Fdd^c ded=c |
(3Bcd Bd cBcA | Bdfa gfdc | (3Bcd gd ^cdDF | (3ABA GF G2 :|

